source/images/logo/framer.svg

<svg fill="none" height="72" viewBox="0 0 50 72" width="50" xmlns="http://www.w3.org/2000/svg" xmlns:xlink="http://www.w3.org/1999/xlink"><linearGradient id="a" gradientUnits="userSpaceOnUse" x1="48.5766" x2="6.45618" y1="12.1162" y2="10.5638"><stop offset="0" stop-color="#8de4ff"/><stop offset="1" stop-color="#30ceff"/></linearGradient><linearGradient id="b" gradientUnits="userSpaceOnUse" x1="48.1342" x2="5.55045" y1="35.8467" y2="35.8467"><stop offset="0" stop-color="#00c5ff"/><stop offset="1" stop-color="#009aff"/></linearGradient><linearGradient id="c" gradientUnits="userSpaceOnUse" x1="12.1061" x2="12.1061" y1="47.7305" y2="71.6905"><stop offset="0" stop-color="#005aff"/><stop offset="1" stop-color="#008dff"/></linearGradient><g clip-rule="evenodd" fill-rule="evenodd"><path d="m24.3355 23.9864h24.2411v-23.740306h-48.037538v.217819z" fill="url(#a)"/><path d="m24.3378 23.9766h-24.2411203v23.7403h48.0375203v-.2178z" fill="url(#b)"/><path d="m.0966797 47.7305h24.0188203v23.96z" fill="url(#c)"/></g></svg>

<svg width="50" height="72" viewBox="0 0 50 72" fill="none" xmlns="http://www.w3.org/2000/svg">
<path fill-rule="evenodd" clip-rule="evenodd" d="M24.3355 23.9864H48.5766V0.246094H0.539062V0.463913L24.3355 23.9864Z" fill="url(#paint0_linear)"/>
<path fill-rule="evenodd" clip-rule="evenodd" d="M24.3378 23.9766H0.0966797V47.7169H48.1342V47.4991L24.3378 23.9766Z" fill="url(#paint1_linear)"/>
<path fill-rule="evenodd" clip-rule="evenodd" d="M0.0966797 47.7305H24.1155V71.6905L0.0966797 47.7305Z" fill="url(#paint2_linear)"/>
<defs>
<linearGradient id="paint0_linear" x1="48.5766" y1="12.1162" x2="6.45618" y2="10.5638" gradientUnits="userSpaceOnUse">
<stop stop-color="#8DE4FF"/>
<stop offset="1" stop-color="#30CEFF"/>
</linearGradient>
<linearGradient id="paint1_linear" x1="48.1342" y1="35.8467" x2="5.55045" y2="35.8467" gradientUnits="userSpaceOnUse">
<stop stop-color="#00C5FF"/>
<stop offset="1" stop-color="#009AFF"/>
</linearGradient>
<linearGradient id="paint2_linear" x1="12.1061" y1="47.7305" x2="12.1061" y2="71.6905" gradientUnits="userSpaceOnUse">
<stop stop-color="#005AFF"/>
<stop offset="1" stop-color="#008DFF"/>
</linearGradient>
</defs>
</svg>
